!!!!SEGMENT: pl-kk--kk-i-382--054_schopf--agnus-dei.krn
!!!cenid: 18xx:1556
!!!COM: Schöpf
!!!COM-rismID: pe50044116
!!!CDT:
!!!CNT:
!!!OTL: Agnus Dei
!!!PDT:
!!!AGN: Sacred
!!!SMS-siglum: PL-Kk
!!!SMS-shelfmark: Kk.I.382
!!!SMS-shelfwork: 040 W
!!!SMS-variant:
!!!SMS-altvar:
!!!NIFC-rismSourceID: 1001139027
!!!NIFC-rismChildID: 1001140798
!!!NIFC-islandoraID: pl-kk:6162
!!!URL-pdf-islandora: https://repozytorium.nifc.pl/islandora/object/pl-kk%3A6162/datastream/PDF/view
!!!URL-scan: https://polish.musicsources.pl/pl/lokalizacje/galeria/rekopisy/5994 @EN{Scan on Polish Music Sources Website} @PL{Skany w portalu Dziedzictwo Muzyki Polskiej w otwartym dostępie}
!!!IIIF:
!!!ONB-nifc: UWAGA: obsada: S/T1, T2, A/B1, B2. Skan 0040, 0113, 0184, 0260
!!!AIN: 1 alto 1 bass 2 tenor
!!!key:
**kern	**text	**dynam	**kern	**text	**dynam	**kern	**text	**dynam	**kern	**text	**dynam
*part4	*part4	*part4	*part3	*part3	*part3	*part2	*part2	*part2	*part1	*part1	*part1
*staff4	*staff4	*	*staff3	*staff3	*	*staff2	*staff2	*	*staff1	*staff1	*
*Ibass	*	*	*Ialto	*	*	*Itenor	*	*	*Itenor	*	*
*I"Basso II	*	*	*I"Alto vel Bas I	*	*	*I"Tenor II	*	*	*I"Soprano vel. Tenor I	*	*
*I'B.II	*	*	*I'A./B.I	*	*	*I'T.II	*	*	*I'S./T.I	*	*
*clefF4	*	*	*clefF4	*	*	*clefG2	*	*	*clefG2	*	*
*k[]	*	*	*k[]	*	*	*k[]	*	*	*k[]	*	*
*a:	*	*	*a:	*	*	*a:	*	*	*a:	*	*
*M4/4	*	*	*M4/4	*	*	*M4/4	*	*	*M4/4	*	*
*met(c)	*	*	*met(c)	*	*	*met(c)	*	*	*met(c)	*	*
=1	=1	=1	=1	=1	=1	=1	=1	=1	=1	=1	=1
*	*	*	*2\right	*	*	*	*	*	*2\right	*	*
!	!	!	!	!	!	!LO:TX:t=P:problem=all\right&colon; global	!	!	!	!	!
4r	.	.	4r	.	.	2.a/	A-	p	4r	.	.
!LO:TX:t=P:problem=all\right&colon; global	!	!	!LO:TX:t=P:problem=all\right&colon; global	!	!	!	!	!	!LO:TX:t=P:problem=all\right&colon; global	!	!
2AA/	A-	p	2E\	A-	p	.	.	.	2cc\	A-	p
4AA/	-gnus	.	4E\	-gnus	.	4a/	-gnus	.	4cc\	-gnus	.
=2	=2	=2	=2	=2	=2	=2	=2	=2	=2	=2	=2
2AA/	De-	.	(4.E\	De-	.	2a/	De-	.	(4.cc\	De-	.
.	.	.	8F\)	.	.	.	.	.	8dd\)	.	.
4AA/	-i	.	4E\	-i	.	4a/	-i	.	4cc\	-i	.
4A\	qui	.	4A\	qui	.	4cc\	qui	.	4ee\	qui	.
=3	=3	=3	=3	=3	=3	=3	=3	=3	=3	=3	=3
8A\L	tol-	.	4A\	tol-	.	4cc\	tol-	.	4ee\	tol-	.
8G\J	.	.	.	.	.	.	.	.	.	.	.
8F\	-lis	.	8A\	-lis	.	8cc\	-lis	.	8dd\	-lis	.
8E\	pe-	.	8A\	pec-	.	8cc\	pe-	.	8ee\	pec-	.
4D\	-ca-	.	8A\L	-ca-	.	8cc\L	-ca-	.	4ff\	-ca-	.
.	.	.	8G\J	.	.	8b\J	.	.	.	.	.
4C/	-ta	.	4G\	-ta	.	4cc\	-ta	.	4ee\	-ta	.
=4	=4	=4	=4	=4	=4	=4	=4	=4	=4	=4	=4
2GG/	mun-	.	2.G\	mun-	.	(4cc\	mun-	.	2dd\	mun-	.
.	.	.	.	.	.	8b/L	.	.	.	.	.
.	.	.	.	.	.	8a/J	.	.	.	.	.
4GG/	-di	.	.	.	.	4b\)	-di	.	4dd\	-di	.
4r	.	.	4G\	-di	.	4r	.	.	4r	.	.
=5	=5	=5	=5	=5	=5	=5	=5	=5	=5	=5	=5
!	!	!	!	!	!	!	!	!LO:DY:rj:a	!	!	!
4.AA/	do-	pp	4.E\	do-	pp	4.a/	do-	pp	4.cc\	do-	pp
8AA/	-na	.	8E\	-na	.	8a/	-na	.	8cc\	-na	.
4AA/	e-	.	4F\	e-	.	4a/	e-	.	4dd\	e-	.
4AA/	-is	.	4E\	-is	.	4a/	-is	.	4cc\	-is	.
!LO:LB:g=original	!	!	!LO:LB:g=original	!	!	!LO:LB:g=original	!	!	!LO:LB:g=original	!	!
=6	=6	=6	=6	=6	=6	=6	=6	=6	=6	=6	=6
4.E\	re-	.	4.E\	re-	.	4.a/	re-	.	4.cc\	re-	.
8EE/	-qui-	.	8E\	-qui-	.	8g#X/	-qui-	.	8b\	-qui-	.
*	*	*	*2\left	*	*	*	*	*	*	*	*
2EE;/	-em	.	2E;\	-em	.	2g#;/	-em	.	2b;\	-em	.
=7	=7	=7	=7	=7	=7	=7	=7	=7	=7	=7	=7
4r	.	.	4r	.	.	2.a/	a-	mf	4r	.	.
.	.	.	.	.	mf	.	.	.	.	.	.
2AA/	a-	mf	2E\	a-	.	.	.	.	2cc\	a-	mf
4AA/	-gnus	.	4E\	-gnus	.	4a/	-gnus	.	4cc\	-gnus	.
=8	=8	=8	=8	=8	=8	=8	=8	=8	=8	=8	=8
2AA/	De-	.	(4.E\	De-	.	2a/	De-	.	(4.cc\	De-	.
.	.	.	8F\)	.	.	.	.	.	8dd\)	.	.
4AA/	-i	.	4E\	-i	.	4a/	-i	.	4cc\	-i	.
4A\	qui	.	4A\	qui	.	4cc\	qui	.	4ee\	qui	.
=9	=9	=9	=9	=9	=9	=9	=9	=9	=9	=9	=9
(8A\L	tol-	.	4A\	tol-	.	4cc\	tol-	.	4ee\	tol-	.
8G\J)	.	.	.	.	.	.	.	.	.	.	.
8F\	-lis	.	8A\	-lis	.	8cc\	-lis	.	8dd\	-lis	.
8E\	pe-	.	8A\	pec-	.	8cc\	pe-	.	8ee\	pec-	.
4D\	-ca-	.	8A\L	-ca-	.	8cc\L	-ca-	.	4ff\	-ca-	.
.	.	.	8G\J	.	.	8b\J	.	.	.	.	.
4C/	-ta	.	4G\	-ta	.	4cc\	-ta	.	4ee\	-ta	.
=10	=10	=10	=10	=10	=10	=10	=10	=10	=10	=10	=10
*	*	*	*2\right	*	*	*	*	*	*	*	*
2GG/	mun-	.	2G\	mun-	.	(4cc\	mun-	.	2dd\	mun-	.
.	.	.	.	.	.	8b/L	.	.	.	.	.
.	.	.	.	.	.	8a/J)	.	.	.	.	.
4GG/	-di	.	4G\	-di	.	4b\	-di	.	4dd\	-di	.
4r	.	.	4r	.	.	4r	.	.	4r	.	.
!LO:LB:g=original	!	!	!LO:LB:g=original	!	!	!LO:LB:g=original	!	!	!LO:LB:g=original	!	!
=11	=11	=11	=11	=11	=11	=11	=11	=11	=11	=11	=11
4.AA/	do-	.	4.E\	do-	p	4.a/	do-	p	4.cc\	do-	p
8AA/	-na	.	8E\	-na	.	8a/	-na	.	8cc\	-na	.
4AA/	e-	.	4F\	e-	.	4a/	e-	.	4dd\	e-	.
4AA/	-is	.	4E\	-is	.	4a/	-is	.	4cc\	-is	.
=12	=12	=12	=12	=12	=12	=12	=12	=12	=12	=12	=12
4.E\	re-	.	4.E\	re-	.	4.a/	re-	.	4.cc\	re-	.
8EE/	-qui-	.	8E\	-qui-	.	8g#X/	-qui-	.	8b\	-qui-	.
2EE;/	-em	.	2E;\	-em	.	2g#;/	-em	.	2b;\	-em	.
=13	=13	=13	=13	=13	=13	=13	=13	=13	=13	=13	=13
!	!	!	!	!	!LO:DY:rj:a	!	!	!	!LO:TX:a:t=1	!	!
4r	.	f	[2A\	a-	f	4r	.	.	1r	.	.
.	.	.	.	.	.	.	.	f	.	.	.
(4A\	a-	.	.	.	.	(4a/	a-	.	.	.	.
4E\)	.	.	4A\]	.	.	4b/)	.	.	.	.	.
4E\	-gnus	.	4G#X\	-gnus	.	4b\	-gnus	.	.	.	.
=14	=14	=14	=14	=14	=14	=14	=14	=14	=14	=14	=14
*	*	*	*	*	*	*2\right	*	*	*	*	*
(2AA/	De-	.	(2A\	De-	.	(2.cc\	De-	.	4r	.	.
.	.	.	.	.	.	.	.	.	(4cc\	a-	f
!LO:TX:b:t=g	!	!	!	!	!	!	!	!	!	!	!
2GG/)	.	.	2Gn\)	.	.	.	.	.	4dd\)	.	.
.	.	.	.	.	.	8b\L	.	.	4dd\	-gnus	.
.	.	.	.	.	.	[8dd\J)	.	.	.	.	.
=15	=15	=15	=15	=15	=15	=15	=15	=15	=15	=15	=15
2.C/	-i	.	2.G\	-i	.	(4dd\]	.	.	2ee\	De-	.
.	.	.	.	.	.	8cc\L	.	.	.	.	.
.	.	.	.	.	.	8b\J)	.	.	.	.	.
.	.	.	.	.	.	4cc\	-i	.	4ee\	-i	.
4C/	qui	.	4G\	qui	.	4cc\	qui	.	4ee\	qui	.
!	!	!	!LO:LB:g=original	!	!	!LO:LB:g=original	!	!	!	!	!
=16	=16	=16	=16	=16	=16	=16	=16	=16	=16	=16	=16
(4.F\	tol-	.	(4.A\	tol-	.	2cc\	tol-	.	(4.ff\	tol-	.
8C/)	.	.	8G\)	.	.	.	.	.	8ee\)	.	.
4C/	-lis	.	4G\	-lis	.	4cc\	-lis	.	4ee\	-lis	.
4C/	pec-	.	4G\	pec-	.	4cc\	pec-	.	4ee\	pec-	.
!LO:LB:g=original	!	!	!	!	!	!	!	!	!LO:LB:g=original	!	!
=17	=17	=17	=17	=17	=17	=17	=17	=17	=17	=17	=17
4.D\	-ca-	.	4.F\	-ca-	.	2a/	-ca-	.	(4.dd\	-ca-	.
8AA/	.	.	8E\	.	.	.	.	.	8cc\)	.	.
2AA/	-ta	.	2E\	-ta	.	2a/	-ta	.	2cc\	-ta	.
=18	=18	=18	=18	=18	=18	=18	=18	=18	=18	=18	=18
1BB/	mun-	>]	(2E\	mun-	.	1f#X/	mun-	.	1b\	mun-	.
.	.	.	2D#X\)	.	.	.	.	.	.	.	.
=19	=19	=19	=19	=19	=19	=19	=19	=19	=19	=19	=19
2.EE/	-di	.	2E\	-di	.	2.g#X/	-di	.	2.b\	-di	.
.	.	.	4.E\	do-	pp	.	.	.	.	.	.
4r	.	.	.	.	.	4r	.	.	4r	.	.
.	.	.	8E\	-na	.	.	.	.	.	.	.
=20	=20	=20	=20	=20	=20	=20	=20	=20	=20	=20	=20
4.AA/	do-	pp	(2E\	e-	.	4.a/	do-	pp	4.cc\	do-	pp
8AA/	-na	.	.	.	.	8a/	-na	.	8cc\	-na	.
4AA/	e-	.	4F\)	.	.	4a/	e-	.	4dd\	e-	.
4AA/	-is	.	4E\	-is	.	4a/	-is	.	4cc\	-is	.
=21	=21	=21	=21	=21	=21	=21	=21	=21	=21	=21	=21
4.E^\	re-	.	4.E\	re-	.	4.a/	re-	.	4.cc\	re-	.
8FF/	-qui-	.	8E\	-qui-	.	8g#X/	-qui-	.	8b\	-qui-	.
2EE/	-em	.	2E\	-em	.	2g#/	-em	.	2b\	-em	.
!	!	!	!LO:LB:g=original	!	!	!LO:LB:g=original	!	!	!	!	!
=22	=22	=22	=22	=22	=22	=22	=22	=22	=22	=22	=22
4AA/	sem-	.	2.E\	sem-	.	(4a/	sem-	.	(4cc\	sem-	.
(8E\L	.	.	.	.	.	4g#X/	.	.	4b\	.	.
8D\J	.	.	.	.	.	.	.	.	.	.	.
4C/)	.	.	.	.	.	4a/)	.	.	4cc\)	.	.
4BB/	-pi-	.	4F\	-pi-	.	4a/	-pi-	.	4dd\	-pi-	.
!	!	!	!	!	!	!	!	!	!LO:LB:g=original	!	!
=23	=23	=23	=23	=23	=23	=23	=23	=23	=23	=23	=23
2E\	-ter-	.	2E\	-ter-	.	(4a/	-ter-	.	2b\	-ter-	.
.	.	.	.	.	.	8g#X/L	.	.	.	.	.
.	.	.	.	.	.	8f#X/J)	.	.	.	.	.
2EE;/	-nam	.	2E;\	-nam	.	2g#;/	-nam	.	2b;\	-nam	.
!LO:LB:g=original	!	!	!	!	!	!	!	!	!	!	!
=24	=24	=24	=24||	=24||	=24||	=24||	=24||	=24||	=24||	=24||	=24||
!LO:TX:b:t=4	!	!	!	!	!	!	!	!LO:DY:b	!	!	!
00r	.	.	2A\	Lux	.	4r	.	mf	2cc\	Lux	mf
.	.	.	.	.	.	2cc\	Lux	.	.	.	.
.	.	.	2G\	ae-	.	.	.	.	2dd\	ae-	.
.	.	.	.	.	.	4b\	ae-	.	.	.	.
=25	=25	=25	=25	=25	=25	=25	=25	=25	=25	=25	=25
.	.	.	2c\	-ter-	>	2cc\	-ter-	.	2ee\	-ter-	.
.	.	.	2G\	-na	]	2b\	-na	.	2dd\	-na	.
=26	=26	=26	=26	=26	=26	=26	=26	=26	=26	=26	=26
.	.	.	(4A\	lu-	.	(4cc\	lu-	.	2cc\	lu-	.
.	.	.	4G\)	.	.	4b\)	.	.	.	.	.
.	.	.	4F\	-ce-	.	4a/	-ce-	.	4cc\	-ce-	.
.	.	.	4E\	-at	.	4g/	-at	.	4cc\	-at	.
=27	=27	=27	=27	=27	=27	=27	=27	=27	=27	=27	=27
!	!	!	!	!	!	!	!	!	!	!	!LO:DY:rj:a
.	.	.	(2D\	e-	.	(8f/L	e-	.	2ff\	e-	f
.	.	.	.	.	.	8g/	.	.	.	.	.
.	.	.	.	.	.	8a/	.	.	.	.	.
.	.	.	.	.	.	8b/J)	.	.	.	.	.
.	.	.	8C/L	.	.	2cc\	-is	.	2ee\	-is	.
.	.	.	8D/J)	.	.	.	.	.	.	.	.
.	.	.	8E\L	-is	.	.	.	.	.	.	.
.	.	.	8F\J	.	.	.	.	.	.	.	.
!	!	!	!LO:LB:g=original	!	!	!LO:LB:g=original	!	!	!	!	!
=28	=28	=28	=28	=28	=28	=28	=28	=28	=28	=28	=28
2r	.	.	4.G\	Do-	.	(4cc\	Do-	.	4.dd\	Do-	.
.	.	.	.	.	.	8b\)	.	.	.	.	.
.	.	.	8G\	-mi-	.	8b\	-mi-	.	8dd\	-mi-	.
4r	.	.	4C/	-ne	.	4cc\	-ne	.	4ee\	-ne	.
.	.	ff	.	.	.	.	.	.	.	.	.
4C/	cum	.	4G\	cum	.	4cc\	cum	.	4ee\	cum	ff
!	!	!	!	!	!	!	!	!	!LO:LB:g=original	!	!
=29	=29	=29	=29	=29	=29	=29	=29	=29	=29	=29	=29
2C/	san-	.	2G\	san-	.	2cc\	san-	.	2ee\	san-	.
2C/	-ctis	.	2G\	-ctis	.	2cc\	-ctis	.	2ee\	-ctis	.
=30	=30	=30	=30	=30	=30	=30	=30	=30	=30	=30	=30
2G\	tu-	.	2G\	tu-	.	2cc\	tu-	.	2dd\	tu-	.
2GG/	-is	.	2G\	-is	.	2b\	-is	.	2dd\	-is	.
=31	=31	=31	=31	=31	=31	=31	=31	=31	=31	=31	=31
2AA/	in	.	2E\	in	.	2a/	in	.	2dd\	in	.
2AA/	ae-	.	2E\	ae-	.	2a/	ae-	.	2cc\	ae-	.
=32	=32	=32	=32	=32	=32	=32	=32	=32	=32	=32	=32
2E\	-ter-	.	2E\	-ter-	.	2a/	-ter-	.	2b\	-ter-	.
2EE/	-num	.	2E\	-num	.	2g#X/	-num	.	2b\	-num	.
=33	=33	=33	=33	=33	=33	=33	=33	=33	=33	=33	=33
4AA/	qui-	.	(<4C/	qui-	.	(4e/	qui-	.	(4a/	qui-	.
(8E\L	.	.	2E\)	.	.	4g#X/	.	.	4b\	.	.
8D\	.	.	.	.	.	.	.	.	.	.	.
8C\	.	.	.	.	.	4a/)	.	.	4cc\)	.	.
8BB\J	.	.	.	.	.	.	.	.	.	.	.
4AA/)	-a	.	4E\	-a	.	(8b\L	-a	.	(8dd\L	-ta	.
.	.	.	.	.	.	8cc\J)	.	.	8ee\J)	.	.
!LO:LB:g=original	!	!	!	!	!	!LO:LB:g=original	!	!	!	!	!
=34	=34	=34	=34	=34	=34	=34	=34	=34	=34	=34	=34
4GG#X/	pi-	.	4E\	pi-	.	4b\	pi-	.	(8ee\L	pi-	.
.	.	.	.	.	.	.	.	.	8dd\J)	.	.
4AA/	-us	.	4E\	-us	.	4a/	-us	.	4cc\	-us	.
*	*	*	*	*	*	*	*	*	*2\left	*	*
2EE;/	es	.	2E;\	es	.	2g#X;/	es	.	2b;\	es	.
!	!	!	!LO:LB:g=original	!	!	!	!	!	!LO:LB:g=original	!	!
=35||	=35||	=35||	=35	=35	=35	=35	=35	=35	=35||	=35||	=35||
4.BB/	Re-	p	4.AA/	RE-	p	4.a/	Re-	.	4.a/	Re-	.
8AA/	-qui-	.	8AA/	-qui-	.	8a/	-qui-	.	8a/	-qui-	.
4C/	-em	.	4C/	-em	.	4a/	-em	.	4a/	-em	.
4E\	ae-	.	4E\	ae-	.	4g#X/	ae-	.	4b/	ae-	.
=36	=36	=36	=36	=36	=36	=36	=36	=36	=36	=36	=36
*	*	*	*	*	*	*	*	*	*2\right	*	*
2AA/	-ter-	<	2E\	-ter-	.	2a/	-ter-	.	2cc\	-ter-	.
2AA/	-nam	[ mf	2E\	-nam	.	2a/	-nam	.	2cc\	-nam	.
=37	=37	=37	=37	=37	=37	=37	=37	=37	=37	=37	=37
4.AA/	do-	.	4.E\	do-	mf	4.a/	do-	mf <	4.cc\	do-	.
8AA/	-na	<	8E\	-na	.	8a/	-na	.	8cc\	-na	.
4AA/	e-	.	4E\	e-	.	4a/	e-	.	4cc\	e-	.
4GG/	-is	[	4G\	-is	.	4b/	-is	[[	4dd\	-is	.
=38	=38	=38	=38	=38	=38	=38	=38	=38	=38	=38	=38
4.C/	Do-	f	4.G\	Do-	f	4.cc\	Do-	f	4.ee\	Do-	.
8C/	-mi-	.	8G\	-mi-	.	8cc\	-mi-	.	8ee\	-mi-	.
2C/	-ne	.	2G\	-ne	.	2cc\	-ne	.	2ee\	-ne	.
=39	=39	=39	=39	=39	=39	=39	=39	=39	=39	=39	=39
*2\right	*	*	*	*	*	*	*	*	*	*	*
2D\	et	p	2F\	et	p	2a/	et	p	2dd\	et	.
4D\	lux	.	4F\	lux	.	4a/	lux	.	4dd\	lux	.
4D\	per-	.	4F\	per-	.	4a/	per-	.	4dd\	per-	.
=40	=40	=40	=40	=40	=40	=40	=40	=40	=40	=40	=40
4.AA/	-pe-	.	4.E\	-pe-	.	4.a/	-pe-	.	4.dd\	-pe-	.
8AA/	-tu-	.	8E\	-tu-	.	8a/	-tu-	.	8cc\	-tu-	.
2AA/	-a	.	2E\	-a	.	2a/	-a	.	2cc\	-a	.
!LO:LB:g=original	!	!	!LO:LB:g=original	!	!	!	!	!	!LO:LB:g=original	!	!
=41	=41	=41	=41	=41	=41	=41||	=41	=41	=41	=41	=41
4.BB-X/	lu-	.	4.D\	lu-	.	4.f/	lu-	.	4.b-X\	lu-	.
8BB-/	-ce-	.	8D\	-ce-	.	8f/	-ce-	.	8b-\	-ce-	.
2FF/	-at	.	2C/	-at	.	2f/	-at	.	2a/	-at	.
=42	=42	=42	=42	=42	=42	=42	=42	=42	=42	=42	=42
1GG/	e-	.	(2C/	e-	.	1d/	e-	.	1g/	e-	.
.	.	.	2BBn/)	.	.	.	.	.	.	.	.
=43	=43	=43	=43	=43	=43	=43	=43	=43	=43	=43	=43
2.C/	-is	.	2.C/	-is	.	2.e/	-is	.	2.g/	-is	.
4r	.	.	4r	.	.	4r	.	.	4r	.	.
=44	=44	=44	=44	=44	=44	=44	=44	=44	=44	=44	=44
2FF/	et	pp	2C/	et	pp	2f/	et	pp	2a-X/	et	.
4FF/	lux	.	4C/	lux	.	4f/	lux	.	4a-/	lux	.
4FF/	per-	.	4C/	per-	.	4f/	per-	.	4a-/	per-	.
=45	=45	=45	=45	=45	=45	=45	=45	=45	=45	=45	=45
4.GG/	-pe-	.	4C/	-pe-	.	4.d/	-pe-	.	4.g/	-pe-	.
.	.	.	4BB/	-tu-	.	.	.	.	.	.	.
8GG/	-tu-	.	.	.	.	8d/	-tu-	.	8g/	-tu-	.
2C/	-a	.	2C/	-a	.	2e-X/	-a	.	2g/	-a	.
=46	=46	=46	=46	=46	=46	=46	=46	=46	=46	=46	=46
!	!	!	!	!	!	!LO:TX:a:t=rit	!	!	!	!	!
4GG/	lu-	.	4C/	lu-	.	4d/	lu-	.	4g/	lu-	.
8GG/	-ce-	.	8BB/	-ce-	.	8d/L	-ce-	.	8g/	-ce-	.
8GG/	-at	.	8AA/	-at	.	8d/J	-at	.	8g/	-at	.
2GG/	e-	.	2BB/	e-	.	2d/	e-	.	2g/	e-	.
=47	=47	=47	=47	=47	=47	=47	=47	=47	=47	=47	=47
1C/;	-is	.	1C/;	-is	.	1en/;	-is	.	1g/;	-is	.
==	==	==	==	==	==	==	==	==	==	==	==
*-	*-	*-	*-	*-	*-	*-	*-	*-	*-	*-	*-
!!!system-decoration: [(s1,s2,s3,s4)]
!!!EED: Leszek Kubiak
!!!EEV: 2021-02-11
!!!ENC: Andrzej Gręziak
!!!END: 2021-01-30
!!!YEC: Copyright 2022 Narodowy Instytut Fryderyka Chopina (https://polishscores.org)
!!!YEM: License CC-BY-4.0 (https://creativecommons.org/licenses/by/4.0)
